src/assets/svg/slider-arrow.svg

<svg fill="none" viewBox="0 0 34 34" ><path clip-rule="evenodd" d="m4.78958 18.3107 5.52052 5.5205-1.76776 1.7678-7.658135-7.6582-.88388391-.8838.88388291-.8839 7.658136-7.65815 1.76776 1.76775-5.52797 5.528h27.85057v2.5z" fill="colorCurrent" fill-rule="evenodd"/></svg>

<svg width="34" height="34" viewBox="0 0 34 34" fill="none" xmlns="http://www.w3.org/2000/svg">
<path fill-rule="evenodd" clip-rule="evenodd" d="M4.78983 18.3107L10.3103 23.8312L8.54258 25.599L0.884449 17.9408L0.00056523 17.057L0.884448 16.1731L8.54258 8.51495L10.3103 10.2827L4.78237 15.8107L32.6329 15.8107L32.6329 18.3107L4.78983 18.3107Z" fill="#A4A9B6"/>
</svg>
